src/Assets/Pictures/izvjestaj.svg

<svg xmlns="http://www.w3.org/2000/svg" viewBox="0 0 122.9 85.6" xmlnsV="https://vecta.io/nano"><path d="M7.5 0h107.9c4.1 0 7.5 3.4 7.5 7.5v70.6c0 4.1-3.4 7.5-7.5 7.5H7.5c-4.1 0-7.5-3.4-7.5-7.5V7.5C0 3.4 3.4 0 7.5 0h0zm62.4 63.3h28.5v4H69.9v-4h0zm0-10.2H109v4H69.9v-4h0zM92.1 35h5.6a.47.47 0 0 1 .5.5v11a.47.47 0 0 1-.5.5h-5.6a.47.47 0 0 1-.5-.5v-11c0-.2.2-.5.5-.5h0 0zm-21.6-6.7h5.6a.47.47 0 0 1 .5.5v17.8a.47.47 0 0 1-.5.5h-5.6a.47.47 0 0 1-.5-.5V28.8c-.1-.3.2-.5.5-.5h0 0 0zm10.8-3.8h5.6a.47.47 0 0 1 .5.5v21.6a.47.47 0 0 1-.5.5h-5.6a.47.47 0 0 1-.5-.5V25a.47.47 0 0 1 .5-.5h0 0zm-42 23.7l17 .3c0 6.1-3 11.7-8 15.1l-9-15.4h0 0zm-1.7-2.9l-.2-19.8v-1.3l1.3.1h0 0c1.6.1 3.2.4 4.7.8s2.9 1 4.3 1.7c6.9 3.6 11.7 10.8 12.1 19l.1 1.3h-1.3l-19.7-.6h-1.1l-.2-1.2h0 0zm2.2-18.6l.2 17.4 17.3.5c-.7-6.8-4.9-12.7-10.7-15.8-1.2-.6-2.5-1.1-3.8-1.5-1.1-.2-2-.4-3-.6h0 0zm-3.9 20.5L45.6 64c-3 1.7-6.3 2.6-9.7 2.6-10.7 0-19.4-8.7-19.4-19.4 0-10.4 8.2-19 18.6-19.4l.8 19.4h0 0zm79.7-33.1H7.2v64.4h108.4V14.1h0 0z" fill-rule="evenodd"/></svg>

<?xml version="1.0" encoding="utf-8"?><svg version="1.1" id="Layer_1" xmlns="http://www.w3.org/2000/svg" xmlns:xlink="http://www.w3.org/1999/xlink" x="0px" y="0px" viewBox="0 0 122.9 85.6" style="enable-background:new 0 0 122.9 85.6" xml:space="preserve"><style type="text/css">.st0{fill-rule:evenodd;clip-rule:evenodd;}</style><g><path class="st0" d="M7.5,0h107.9c4.1,0,7.5,3.4,7.5,7.5v70.6c0,4.1-3.4,7.5-7.5,7.5H7.5c-4.1,0-7.5-3.4-7.5-7.5V7.5 C0,3.4,3.4,0,7.5,0L7.5,0z M69.9,63.3h28.5v4H69.9V63.3L69.9,63.3z M69.9,53.1H109v4H69.9V53.1L69.9,53.1z M92.1,35h5.6 c0.3,0,0.5,0.2,0.5,0.5v11c0,0.3-0.2,0.5-0.5,0.5h-5.6c-0.3,0-0.5-0.2-0.5-0.5v-11C91.6,35.3,91.8,35,92.1,35L92.1,35L92.1,35z M70.5,28.3h5.6c0.3,0,0.5,0.2,0.5,0.5v17.8c0,0.3-0.2,0.5-0.5,0.5h-5.6c-0.3,0-0.5-0.2-0.5-0.5V28.8 C69.9,28.5,70.2,28.3,70.5,28.3L70.5,28.3L70.5,28.3L70.5,28.3z M81.3,24.5h5.6c0.3,0,0.5,0.2,0.5,0.5v21.6c0,0.3-0.2,0.5-0.5,0.5 h-5.6c-0.3,0-0.5-0.2-0.5-0.5V25C80.8,24.7,81,24.5,81.3,24.5L81.3,24.5L81.3,24.5z M39.3,48.2l17,0.3c0,6.1-3,11.7-8,15.1 L39.3,48.2L39.3,48.2L39.3,48.2z M37.6,45.3l-0.2-19.8l0-1.3l1.3,0.1h0h0c1.6,0.1,3.2,0.4,4.7,0.8c1.5,0.4,2.9,1,4.3,1.7 c6.9,3.6,11.7,10.8,12.1,19l0.1,1.3l-1.3,0l-19.7-0.6l-1.1,0L37.6,45.3L37.6,45.3L37.6,45.3z M39.8,26.7L40,44.1l17.3,0.5 c-0.7-6.8-4.9-12.7-10.7-15.8c-1.2-0.6-2.5-1.1-3.8-1.5C41.7,27.1,40.8,26.9,39.8,26.7L39.8,26.7L39.8,26.7z M35.9,47.2L45.6,64 c-3,1.7-6.3,2.6-9.7,2.6c-10.7,0-19.4-8.7-19.4-19.4c0-10.4,8.2-19,18.6-19.4L35.9,47.2L35.9,47.2L35.9,47.2z M115.6,14.1H7.2v64.4 h108.4V14.1L115.6,14.1L115.6,14.1z"/></g></svg>
